X: 305705
M: 6/8
L: 1/8
K: F
c2c cde | fga b2a | gec' cde | gff f2 H|]
z |\
c'c'/c'/c' c'c'/c'/c' | c'eg c'3 | f2e d2c | =B/c/d/c/B/A/ G2z |\
cc/c/c AA/A/A | dd/d/d =B2z | gg/g/g GAB | dcc "^D.C."c2 |]
c |\
c2A A2F | F3 CDE | FCF AFA | cAc fca |\
bag fed | cBA GAB | cBA bag | fAc "^D.C."f2 |]


